cssgg/arrow-long-left-e.svg

<svg
  width="24"
  height="24"
  viewBox="0 0 24 24"
  fill="none"
  xmlns="http://www.w3.org/2000/svg"
>
  <path
    fill-rule="evenodd"
    clip-rule="evenodd"
    d="M5.26323 7.75737L1.01343 11.9928L5.24893 16.2426L6.66553 14.8308L4.85123 13.0104L16.9685 13.0519L16.9596 15.0507L22.9595 15.0777L22.9865 9.07773L16.9865 9.05079L16.9775 11.0519L4.83252 11.0103L6.67505 9.17397L5.26323 7.75737ZM20.9775 11.0687L20.9685 13.0687L18.9685 13.0597L18.9775 11.0597L20.9775 11.0687Z"
    fill="currentColor"
  />
</svg>

<svg viewBox="0 0 24 24" xmlns="http://www.w3.org/2000/svg"><path fill-rule="evenodd" d="M5.26 7.75l-4.25 4.23 4.23 4.24 1.41-1.42 -1.82-1.83 12.11.04 -.01 1.99 5.99.02 .02-6 -6-.03 -.01 2 -12.15-.05L6.62 9.1 5.2 7.68Zm15.71 3.31l-.01 2 -2-.01 0-2 2 0Z"/></svg>
